X:1
T:Title
%%score { ( 1 3 ) | 2 }
L:1/8
M:4/4
K:D
V:1 treble nm="Grand Piano"
V:3 treble 
V:2 bass 
V:1
 z4 z2 z[Q:1/4=86] D/E/ | F[FA][FA][FA] [GB] [FA]2 [DF]/[EG]/ |[M:7/8] [FA][Fd][Fd] [Ge] [Fd]2 z | %3
[M:1/8] [Ad]/[Ac]/ |[M:4/4] [Ge][DBd][DAc][DGB] [DGB] [DFA]2 [A,DF]/[A,FA]/ | %5
[M:7/8] [A,DA][A,DA][A,CG] [A,DF][K:bass] [A,CE]3 |[M:1/8] [F,D]/[K:treble][G,CE]/ | %7
[M:4/4] z [FA]3- [FA]2 z2 |[M:7/8] z [Fd]-[Fd]- [Fd]3 z |[M:1/8] [Ad]/[Ac]/ | %10
[M:4/4] [Ge][DBd][DAc][DGB] [DGB] [DFA]2[K:bass] [F,D]/[G,CE]/ | %11
[M:7/8][K:treble] [A,DF]<[A,FA][K:bass] [G,CE]2 [F,D]3 |] %12
V:2
 z4 z2 z [D,F,]/[D,G,C]/ | [D,A,D][D,D][D,D][D,D] [D,D] [D,D]2 [D,A,]/[D,A,]/ | %2
[M:7/8] [D,A,][D,A,][D,A,] [D,A,] [D,A,]2 z |[M:1/8] [F,A,]/[F,A,]/ | %4
[M:4/4] [G,B,]G,G,G, D, D,2 D,/D,/ |[M:7/8] F,F,E, D, A,,3 |[M:1/8] D,/D,/ | %7
[M:4/4] D,D, D,/D,/D, D,2 z [D,A,D]/[D,A,]/ |[M:7/8] [D,A,][D,A,]D,/D,/ D, D,2 z | %9
[M:1/8] [F,A,]/[F,A,]/ |[M:4/4] [G,B,]G,G,G, D, D,2 D,/D,/ |[M:7/8] A,,<A,, A,,2 D,3 |] %12
V:3
 x8 | x8 |[M:7/8] x7 |[M:1/8] x |[M:4/4] x8 |[M:7/8] x4[K:bass] x3 |[M:1/8] x/[K:treble] x/ | %7
[M:4/4] [A,DF]D D/D/D D2 z F/[EG]/ |[M:7/8] [FA] z A,/A,/ A, A,2 z |[M:1/8] x | %10
[M:4/4] x7[K:bass] x |[M:7/8][K:treble] x2[K:bass] x5 |] %12

